www/assets/icons/groups_3.svg

<svg xmlns="http://www.w3.org/2000/svg" width="24" height="24" viewBox="0 0 24 24" fill='currentColor'><path d="M16.24 13.65c-1.17-.52-2.61-.9-4.24-.9s-3.07.39-4.24.9A2.99 2.99 0 0 0 6 16.39V18h12v-1.61c0-1.18-.68-2.26-1.76-2.74m-15.02.93A2.01 2.01 0 0 0 0 16.43V18h4.5v-1.61c0-.83.23-1.61.63-2.29-.37-.06-.74-.1-1.13-.1-.99 0-1.93.21-2.78.58m21.56 0A6.95 6.95 0 0 0 20 14c-.39 0-.76.04-1.13.1.4.68.63 1.46.63 2.29V18H24v-1.57c0-.81-.48-1.53-1.22-1.85M12 12c1.66 0 3-1.34 3-3s-1.34-3-3-3-3 1.34-3 3 1.34 3 3 3M4 8.497 1.497 11 4 13.503 6.503 11zM20 9l-2.5 4h5z"/></svg>

<svg width="24" height="24" viewBox="0 0 24 24" xmlns="http://www.w3.org/2000/svg" fill='currentColor'><path d="M16.24 13.65C15.07 13.13 13.63 12.75 12 12.75C10.37 12.75 8.93 13.14 7.76 13.65C6.68 14.13 6 15.21 6 16.39V18H18V16.39C18 15.21 17.32 14.13 16.24 13.65Z"/><path d="M1.22 14.58C0.48 14.9 0 15.62 0 16.43V18H4.5V16.39C4.5 15.56 4.73 14.78 5.13 14.1C4.76 14.04 4.39 14 4 14C3.01 14 2.07 14.21 1.22 14.58Z"/><path d="M22.78 14.58C21.93 14.21 20.99 14 20 14C19.61 14 19.24 14.04 18.87 14.1C19.27 14.78 19.5 15.56 19.5 16.39V18H24V16.43C24 15.62 23.52 14.9 22.78 14.58Z"/><path d="M12 12C13.66 12 15 10.66 15 9C15 7.34 13.66 6 12 6C10.34 6 9 7.34 9 9C9 10.66 10.34 12 12 12Z"/><path d="M3.9999 8.49687L1.49677 11L3.9999 13.5031L6.50303 11L3.9999 8.49687Z"/><path d="M20 9L17.5 13H22.5L20 9Z"/></svg>
